X: 1
T: Delsbo Brudmarsch
O: uppt> Joh. Skoglund
D: B10
M: C
L: 1/8
K: Ddor
|: A^G AB cd cB | A^G Ac e4 \
|1 fg fe d3 f | ef e^c A4 \
:|2,3,4 fe de ge fd | ^cd ec A4 |
|  A^G AB cd cB | A^G Ac e4 \
|  fe fg a2 ^ce | d2 {e}d2 {c}d4 :| \
|: fe fg a2 a2 | ge ce g2 g2 |
| fg fe d^c df | fe e^c A4 \
|  fe fg a2 a2 | ge ce g2 g2 \
| fe fg a2 ^ce |  d2 {e}d2 {c}d4 :|
